X: 6
T: Blue Bonnets Over The Border
R: jig
M: 6/8
L: 1/8
K: Cmaj
|: C3 C>DE | c>ed c2A | c<AA A>aa | a>ge e>de |
C3 C>DE | c>ed c2A | c>BA G>AB |1 c>de d2c :|2 c>de d2c |
|: c>eg ~g3 | a>ge e>de | c>eg a>bc’ | c>de d2c |
c>eg ~g3 | a>ge e>de | c>BA G>AB | c>de d2c :|


Tune 2402	Setting 20648

